rotate-left-variant.svg

<svg fill="currentColor" viewBox="0 0 24 24"><path d="M4 2h3a2 2 0 0 1 2 2v16a2 2 0 0 1-2 2H4a2 2 0 0 1-2-2V4a2 2 0 0 1 2-2m16 13a2 2 0 0 1 2 2v3a2 2 0 0 1-2 2h-9v-7zM14 4a8 8 0 0 1 8 8l-.06 1h-2.02l.08-1a6 6 0 0 0-6-6v3l-4-4 4-4z"/></svg>

<svg  viewBox="0 0 24 24" fill="currentColor"><path  d="M4,2H7A2,2 0 0,1 9,4V20A2,2 0 0,1 7,22H4A2,2 0 0,1 2,20V4A2,2 0 0,1 4,2M20,15A2,2 0 0,1 22,17V20A2,2 0 0,1 20,22H11V15H20M14,4A8,8 0 0,1 22,12L21.94,13H19.92L20,12A6,6 0 0,0 14,6V9L10,5L14,1V4Z"/></svg>
